assets/lettere/urbane/R.svg

<?xml version="1.0" encoding="UTF-8"?>
<svg id="Livello_1" data-name="Livello 1" xmlns="http://www.w3.org/2000/svg" viewBox="0 0 120.41 138.86">
  <defs>
    <style>
      .cls-1 {
        fill: #231f20;
      }
    </style>
  </defs>
  <path class="cls-1" d="M108.3,111.27c-1.45,0-2.62-.25-3.48-.8-.84-.54-1.62-1.24-2.28-2.17l-11.1-18.85c7-4.22,12.6-9.92,16.76-17.06,4.17-7.14,6.24-15.07,6.24-23.8,0-9.65-2.32-18.1-6.93-25.38-4.62-7.29-10.78-12.96-18.45-17.06-7.67-4.11-16.2-6.15-25.58-6.15H16.56c-2.44,0-4.75.53-6.84,1.48l19.71,19.72.2.19c.58.53,2.01,1.83,4.01,3.71.1.09,1.43,1.14,2.45,1.95.75.59,1.69.91,2.65.91h20.96c3.84,0,7.38.8,10.62,2.38,3.23,1.59,5.85,3.93,7.83,7.05,1.98,3.12,2.97,6.85,2.97,11.2s-.95,7.94-2.87,11.11-4.5,5.59-7.73,7.24c-3.24,1.65-6.84,2.47-10.82,2.47h-20.99c-.96,0-1.89.32-2.64.9-.85.65-1.87,1.46-2.43,1.97-2.67,2.49-4.31,3.99-4.31,3.99l-2.86-2.86s1.49-1.64,3.99-4.31c.52-.56,1.33-1.59,1.98-2.44.57-.75.88-1.67.88-2.62v-30.65c0-.98-.32-1.92-.92-2.68-.78-1-1.79-2.26-1.94-2.43-1.24-1.33-2.23-2.39-2.92-3.14l-.06.06L6.05,3.77C2.36,6.81,0,11.41,0,16.56v122.28h33.32v-36.55c0-.96-.31-1.88-.88-2.63-.65-.85-1.46-1.89-1.98-2.44-2.5-2.67-3.99-4.31-3.99-4.31l2.86-2.86s1.64,1.49,4.31,3.99c.56.51,1.58,1.32,2.43,1.97.75.58,1.68.89,2.64.89h19.8l4.86,8.71,10.01,17.76c2.79,4.62,6.61,8.37,11.52,11.21,4.9,2.83,10.32,4.26,16.26,4.26l19.25.02v-27.58h-12.11,0Z"/>
</svg>

<svg id="Livello_1" data-name="Livello 1" xmlns="http://www.w3.org/2000/svg" viewBox="0 0 120.4 138.85"><defs><style>.cls-1{fill:#231f20;}</style></defs><path class="cls-1" d="M108.3,111.26a6.48,6.48,0,0,1-3.48-.79,8.23,8.23,0,0,1-2.28-2.18L91.43,89.45A47.72,47.72,0,0,0,108.2,72.38a46.25,46.25,0,0,0,6.24-23.8q0-14.46-6.94-25.38a48.55,48.55,0,0,0-18.44-17A53.22,53.22,0,0,0,63.47,0H16.56A16.56,16.56,0,0,0,0,16.56V138.84H33.32V102.28a4.32,4.32,0,0,0-.89-2.63,31.28,31.28,0,0,0-2-2.43c-2.49-2.68-4-4.32-4-4.32L29.32,90s1.64,1.5,4.32,4c.55.52,1.58,1.33,2.42,2a4.36,4.36,0,0,0,2.64.9H58.51l4.86,8.71,10,17.75a32.29,32.29,0,0,0,27.78,15.48H120.4V111.28ZM78.24,59.7a19.09,19.09,0,0,1-7.73,7.24A23.43,23.43,0,0,1,59.7,69.41h-21a4.36,4.36,0,0,0-2.64.9c-.84.64-1.87,1.45-2.42,2-2.68,2.49-4.32,4-4.32,4l-2.86-2.86s1.5-1.64,4-4.32a31.28,31.28,0,0,0,2-2.43A4.32,4.32,0,0,0,33.32,64V33.38a4.36,4.36,0,0,0-.93-2.68c-.78-1-1.78-2.25-1.94-2.42-2.49-2.67-4-4.32-4-4.32l2.86-2.85s1.64,1.49,4.32,4c.1.1,1.43,1.15,2.44,1.95a4.27,4.27,0,0,0,2.65.92h21a23.86,23.86,0,0,1,10.61,2.38,19.15,19.15,0,0,1,7.84,7.05,20.4,20.4,0,0,1,3,11.19A21,21,0,0,1,78.24,59.7Z"/></svg>
